packages/swarm-icons/src/icons/line/Lightbulb Bright.svg

<svg xmlns="http://www.w3.org/2000/svg" width="24" height="24" viewBox="0 0 24 24">
  <path fill="#757575" d="M13.9987448,17.9999904 C13.9974332,16.9298774 14.1838931,16.0914133 14.5769246,15.4845456 C14.807244,15.1286369 15.0423172,14.8381411 15.4293793,14.4056678 C15.5206921,14.3039022 15.5206921,14.3039022 15.6102928,14.2042222 C16.6559904,13.0389219 17,12.3273032 17,10.7576285 C17,8.13496112 14.7719383,6 12.0129447,6 L11.9870553,6 C9.22806174,6 7,8.13496112 7,10.7576285 C7,12.3274176 7.34403002,13.0392251 8.38948252,14.2042165 C8.47961438,14.3044825 8.47961438,14.3044825 8.57147977,14.4068613 C8.95784153,14.838554 9.19284957,15.1289575 9.42308415,15.4845591 C9.81584498,16.0915286 10.0022415,16.9299512 10.0011348,18.000047 L13.9987448,17.9999904 Z M8.58359405,16.0279341 C8.38805304,15.7259173 8.18085418,15.4698781 7.82633316,15.073762 C7.73633638,14.9734661 7.73633638,14.9734661 7.64522354,14.8721076 C6.44952759,13.5396937 6,12.6096089 6,10.7576285 C6,7.57290209 8.68510029,5 11.9870553,5 L12.0129447,5 C15.3148997,5 18,7.57290209 18,10.7576285 C18,12.6095312 17.5504897,13.5393888 16.354562,14.872102 C16.2639907,14.9728629 16.2639907,14.9728629 16.1745245,15.0725701 C15.8193548,15.4694092 15.6121109,15.7255145 15.4163699,16.0279898 C15.1247099,16.4783329 14.9786826,17.1963912 15.0009609,18.1820731 C15.0108349,18.6237099 14.6608941,18.989801 14.2192385,18.9997833 C14.2102013,18.9999535 14.2102013,18.9999535 14.2011695,18.9999875 L9.79882343,19.0000499 C9.35696119,19.0000499 8.99876108,18.6418498 8.99876108,18.1999875 C8.99879443,18.19104 8.99879443,18.19104 8.9989612,18.182094 C9.0210114,17.1964241 8.87498443,16.4782465 8.58359405,16.0279341 Z M10,21 C9.72385763,21 9.5,20.7761424 9.5,20.5 C9.5,20.2238576 9.72385763,20 10,20 L14,20 C14.2761424,20 14.5,20.2238576 14.5,20.5 C14.5,20.7761424 14.2761424,21 14,21 L10,21 Z M10.5,23 C10.2238576,23 10,22.7761424 10,22.5 C10,22.2238576 10.2238576,22 10.5,22 L13.5,22 C13.7761424,22 14,22.2238576 14,22.5 C14,22.7761424 13.7761424,23 13.5,23 L10.5,23 Z M11.5,1 C11.5,0.723857625 11.7238576,0.5 12,0.5 C12.2761424,0.5 12.5,0.723857625 12.5,1 L12.5,3 C12.5,3.27614237 12.2761424,3.5 12,3.5 C11.7238576,3.5 11.5,3.27614237 11.5,3 L11.5,1 Z M17.6755705,2.5 C17.8378829,2.27659613 18.1505678,2.22707171 18.3739716,2.38938413 C18.5973755,2.55169654 18.6468999,2.86438138 18.4845875,3.08778525 L17.309017,4.70581924 C17.1467046,4.92922312 16.8340197,4.97874753 16.6106159,4.81643511 C16.387212,4.6541227 16.3376876,4.34143786 16.5,4.11803399 L17.6755705,2.5 Z M7.4845875,4.11803399 C7.64689991,4.34143786 7.5973755,4.6541227 7.37397163,4.81643511 C7.15056775,4.97874753 6.83788292,4.92922312 6.6755705,4.70581924 L5.5,3.08778525 C5.33768758,2.86438138 5.387212,2.55169654 5.61061587,2.38938413 C5.83401975,2.22707171 6.14670458,2.27659613 6.30901699,2.5 L7.4845875,4.11803399 Z M21.2123043,7.80281988 C21.4717932,7.70837363 21.7587144,7.84216717 21.8531607,8.10165612 C21.9476069,8.36114508 21.8138134,8.64806625 21.5543244,8.74251251 L19.6749392,9.42655279 C19.4154502,9.52099905 19.128529,9.38720551 19.0340828,9.12771655 C18.9396365,8.8682276 19.0734301,8.58130643 19.332919,8.48686017 L21.2123043,7.80281988 Z M4.55432442,8.48686017 C4.81381337,8.58130643 4.94760691,8.8682276 4.85316066,9.12771655 C4.7587144,9.38720551 4.47179323,9.52099905 4.21230427,9.42655279 L2.33291903,8.74251251 C2.07343008,8.64806625 1.93963654,8.36114508 2.03408279,8.10165612 C2.12852905,7.84216717 2.41545022,7.70837363 2.67493918,7.80281988 L4.55432442,8.48686017 Z"/>
</svg>

<svg xmlns="http://www.w3.org/2000/svg" width="24" height="24"><path fill="#757575" d="M13.999 18c-.002-1.07.185-1.909.578-2.515.23-.356.465-.647.852-1.08l.181-.2c1.046-1.166 1.39-1.878 1.39-3.447C17 8.135 14.772 6 12.013 6h-.026C9.228 6 7 8.135 7 10.758c0 1.57.344 2.281 1.39 3.446l.181.203c.387.432.622.722.852 1.078.393.607.58 1.445.578 2.515H14zm-5.415-1.972c-.196-.302-.403-.558-.758-.954l-.18-.202C6.45 13.54 6 12.61 6 10.758 6 7.573 8.685 5 11.987 5h.026C15.315 5 18 7.573 18 10.758c0 1.852-.45 2.781-1.645 4.114l-.18.2c-.356.397-.563.654-.759.956-.291.45-.437 1.168-.415 2.154a.8.8 0 01-.782.818H9.8a.8.8 0 01-.8-.8v-.018c.022-.986-.124-1.704-.415-2.154zM10 21a.5.5 0 110-1h4a.5.5 0 110 1h-4zm.5 2a.5.5 0 110-1h3a.5.5 0 110 1h-3zm1-22a.5.5 0 111 0v2a.5.5 0 11-1 0V1zm6.176 1.5a.5.5 0 11.809.588l-1.176 1.618a.5.5 0 11-.809-.588L17.676 2.5zM7.485 4.118a.5.5 0 01-.81.588L5.5 3.088a.5.5 0 11.809-.588l1.176 1.618zm13.727 3.685a.5.5 0 01.342.94l-1.88.684a.5.5 0 11-.341-.94l1.88-.684zm-16.658.684a.5.5 0 01-.342.94l-1.88-.684a.5.5 0 01.343-.94l1.88.684z"/></svg>
